packages/tokens/icons/question/size32Px.svg

<svg viewBox="0 0 32 32" fill="none" xmlns="http://www.w3.org/2000/svg" width="1em" height="1em"><circle cx="16" cy="16" r="13.5" stroke="currentColor" stroke-linecap="round"/><path d="M15.9947 20V18.7393C16.0083 18.393 16.0491 18.0972 16.1171 17.8519C16.1852 17.6067 16.2804 17.383 16.4029 17.181C16.5253 16.9646 16.675 16.7626 16.8518 16.575C17.0287 16.3874 17.2328 16.171 17.4641 15.9257C17.6954 15.6804 17.9199 15.4424 18.1375 15.2115C18.3552 14.9662 18.5457 14.7065 18.709 14.4324C18.8722 14.1438 19.0015 13.8336 19.0967 13.5017C19.2056 13.1699 19.26 12.7875 19.26 12.3546C19.26 11.9218 19.1784 11.5034 19.0151 11.0994C18.8654 10.6954 18.6409 10.3419 18.3416 10.0389C18.0423 9.72143 17.6682 9.46893 17.2192 9.28136C16.7838 9.09379 16.2872 9 15.7294 9C15.1716 9 14.6886 9.08657 14.2804 9.25972C13.8858 9.41843 13.5457 9.62043 13.26 9.86572C12.9879 10.0966 12.7702 10.3419 12.6069 10.6016C12.4573 10.8613 12.3416 11.0849 12.26 11.2725" stroke="currentColor" stroke-linecap="round" stroke-linejoin="round"/><path d="M16 24L16 23" stroke="currentColor" stroke-linecap="round"/></svg>

<svg xmlns="http://www.w3.org/2000/svg" fill="none" viewBox="0 0 32 32" width="1em" height="1em"><circle cx="16" cy="16" r="13.5" stroke="currentColor" stroke-linecap="round"/><path stroke="currentColor" stroke-linecap="round" stroke-linejoin="round" d="M15.995 20v-1.26a3.94 3.94 0 0 1 .122-.888 2.64 2.64 0 0 1 .286-.671c.122-.216.272-.418.449-.606l.612-.65.674-.714c.217-.245.408-.505.571-.779a4.28 4.28 0 0 0 .388-.93 3.68 3.68 0 0 0 .163-1.147 3.32 3.32 0 0 0-.245-1.256 2.95 2.95 0 0 0-.673-1.06c-.3-.318-.674-.57-1.123-.758-.435-.187-.932-.281-1.49-.281-.557 0-1.04.087-1.449.26-.394.158-.734.36-1.02.606-.272.23-.49.476-.653.736-.15.26-.265.483-.347.67"/><path stroke="currentColor" stroke-linecap="round" d="M16 24v-1"/></svg>
